!!!OTL: Pueri concinite
**kern
*staff1
=1-
*clefF4
*k[b-]
1r
2r
2F\
1.C
2C/
=2
2F\
2BB-/
1C
0FF
=3
!LO:TX:Y=283:t=P
2r
2F\
1.C
2C/
1AA
=4
!!linebreak:original
2AA/
2AA/
1E
1F
1BB-
=5
2F\
2BB-/
0C
0FF
!!linebreak:original
=6
1E
1F
1E
1F
=7
!LO:TX:Y=-39:t=P
1C
1F
1E
1F
!!linebreak:original
=8
1C
1F
1E
1F
=9
1BB-
0C
0FF
==
*-
!!title: @{OTL}, @{GTL}, ed. @{ENC}
!!!pag:
!!!GTL: Hymnbook D
!!!EFL: 
!!!YEM: Creative Commons CC/BY/NC/SA 4.0
!!!ENC: Marcin Konik
!!!END: 2015-0m-dd
!!!EED: Marcin Konik
!!!EEV: 
!!!ONB: Encoded in vim by Marcin Konik
!!!CharacterEncoding: utf-8
!!!RDF**kern: l=long note in original notation
!!!RDF**kern: i=editorial accidental
!!muse2ps: z14jc180F
!!!COM: Anonim
!!!CDT: [?]
!!!TXO: Polish
!!!ODT: 
!!!GTL: Hymnbook D
!!!ARL: Opactwo św. Wojciecha, Staniątki 
!!!voices:	1
